X: 16285
T: Gribanovka Trip
R: waltz
M: 3/4
K: Bminor
|:F2 D2 B2|f2 e2 d2|G4 A2|A2 G2 F2|
A2 d2 f2|f2 e2 d2|A4 g2|f2 e2 d2|
F2 D2 B2|f2 e2 d2|G4 A2|A2 G2 F2|
A2 cd e2|d2 c2 A2|A2 e2 a2|g2 f2 d2:|
|:e2 d2 c2|B4 d2|G4 A2|A2 G2 F2|
D2 FG A2|G2 F2 D2|E2 D2 E2|F2 B2 c2|
d2 c2 B2|G4 A2|F4 A2|A2 G2 F2|
D2 FG A2|G2 F2 D2|E6|E6:|

